X:1
T:Someone Must Tell the Glad Story
T:Someone Must Tell the Glad Story
T:Adam Geibel
T:William Charles Poole, 1921
T:Public Domain Courtesy of the Cyber Hymnal™
T:Public Domain Courtesy of the Cyber Hymnal™
C:Adam Geibel
Z:Public Domain
Z:Courtesy of the Cyber Hymnal™
%%score ( 1 2 ) ( 3 4 )
L:1/8
Q:1/4=90
M:6/8
K:F
V:1 treble 
V:2 treble 
V:3 bass 
V:4 bass 
V:1
 [FA][F^G][FA] F[F=G][FA] | [FB]3 [FA]2 [FA] | [EA][EG][^D^F] [EG][E=d][Ec] | [FA]3- [FA]2 [CA] | %4
w: 1.~Some- one must tell the glad|sto- ry, The|bless- èd old sto- ry so|true, * Of|
w: 2.~Some- one must tell of a|Sav- ior, To|o- thers a- cross the deep|blue, * Now|
w: 3.~Some- one must tell of the|bless- ing That|comes with each morn- ing so|new, * The|
w: 4.~Some- one must tell of sal-|va- tion, Some-|one must to Je- sus be|true, * And|
 [CA][CA][CA] [E=B][EB][EB] | [Ec]3 [Ec]2 [Ad] | [Ge][Ec][EA] [F=B][Fc][Fd] | [Ec]3- [Ec]2 |: %8
w: love and of won- der- ful|glo- ry, O|say will that some- one be|you? *|
w: wait- ing His love and His|fa- vor, O|say will that some- one be|you? *|
w: good- ness of Je- sus con-|fess- ing, O|say will that some- one be|you? *|
w: car- ry; to each wait- ing|na- tion The|sto- ry that al- ways is|new. *|
"^Refrain" [Cc] | c3- [Ac][Gc][Fc] | ced [Ec]2 [Cc] | c3- [Bc][Ac][Gc] |1 cfd [Ac]2 [Ac] | %13
w: |||||
w: O|say will that some-|* one be O say|will that some- one|* be you? tell the|
w: |||||
w: |||||
 ^c2- [Gc] [Fc][Ec] x | d2 [Fe] f2 [Af] | [Ge][ce][Ae] [=Bf][Gf][df] | %16
w: |||
w: glad sto- ry *|||
w: |||
w: |||
 (z"^riten." [Bbd'][Aac'] [Bc-e-gb][Gceg]) :|2 [Fc] || [Fd]>[Fe][Fd] [Fc][Fc][^FA] | %19
w: |||
w: |||
w: |||
w: |||
 [DB]>[Dc][Dd] [EG]!fermata![EA][^FA] | [DB][Dc][Dd] [EAe]!fermata![EAe][EGe] | z2 [CFf]6 x |] %22
w: |||
w: |||
w: |||
w: |||
V:2
 x3 F x2 | x6 | x6 | x6 | x6 | x6 | x6 | x5 |: x | A3/2 A/ A x3 | E3- x3 | B3/2 B/ B x3 |1 A3- x3 | %13
 G3/2 G/ G x3 | (F3/2 F/ F) F x2 | x6 | [ce]3 x2 :|2 x || x6 | x6 | x6 | ([Ff]3 D) x5 |] %22
V:3
 [F,C][F,=B,][F,C] [F,A,][F,_B,][F,C] | [F,D]3 [F,C]2 [F,C] | [C,C][C,B,][C,A,] [C,B,][C,G,][C,C] | %3
w: ~ ~ ~ ~ ~ ~|~ ~ ~|~ ~ ~ ~ ~ ~|
 [F,C]3- [F,C]2 [F,A,] | [F,A,][F,A,][F,A,] [E,^G,][E,G,][E,G,] | A,3 A,2 [F,C] | %6
w: ~ * ~|~ ~ ~ ~ ~ ~|~ ~ ~|
 [G,C][G,C][G,C] [G,D][G,C][G,=B,] | [C,C]3- [C,C]2 |: z | F,,z[C,F,A,] [C,F,A,]2 [C,F,A,] | %10
w: ~ ~ ~ ~ ~ ~|~ *||O say will that|
 (G,,z[C,E,B,] [C,E,B,]2) z | C,,z[C,E,B,] [C,E,B,]2 [C,E,B,] |1 (F,,z[C,F,A,] [C,F,A,]2) z | %13
w: someone * *|be you? O say|will * *|
 A,,z[G,A,^C] [G,A,C]2 [G,A,C] | [D,,D,]z[F,A,D] [F,A,D]2 z | [G,,G,]z[G,CE] [G,,G,] z [G,=B,DF] | %16
w: that someone be you?|To tell the|glad story of grace|
 [C,E,G,C]3- [C,E,G,C]2 :|2 [F,A,] || B,>B,B, [A,C][A,C][D,C] | %19
w: and *|of|glory, O say will that some-|
 [G,B,]>[G,B,][G,B,] [A,^C]!fermata![A,C][D,=C] | [G,B,][G,B,][G,B,] [C,C]!fermata![C,C][C,B,] | %21
w: one be you? To tell the|glad sto- ry of grace and|
 A,2 B, [F,,F,A,]6 |] %22
w: of glo- ry,|
V:4
 x6 | x6 | x6 | x6 | x6 | A,3 A,2 x | x6 | x5 |: x | x6 | x6 | x6 |1 F,, x5 | x6 | x6 | x6 | x5 :|2 %17
 x || B,3/2 x9/2 | x6 | x6 | [F,,F,]3- x6 |] %22

